X:607
T:Short Coated Mary
S:ALP Scots Music Group Sessions
Z:Nigel Gatherer
L:1/8
M:4/4
K:Emix
E2 B2 BABc  | d2 AF DEFD | E2 B2 BABc  | d2 AF E2 E2 :|
d2 dB e2 e2 | d2 d2 FFFD | d2 dB e2 e2 | d2 AF E2 E2  |
d2 dB e2 e2 | d2 d2 FFFD | E2 B2 BABc  | d2 AF E2 E2 |]
<end>
<start>
